assets/img/Nav-logo.svg

<svg width="203" height="52" viewBox="0 0 203 52" fill="none" xmlns="http://www.w3.org/2000/svg">
<path d="M11.644 40.4684H18.2663C26.1124 40.4684 32.5188 35.9336 32.5188 25.7121C32.5188 15.4907 26.1124 10.8839 18.2663 10.8839H11.644V40.4684ZM18.6982 51.1937H0.270874V0.158569H18.7702C34.1024 0.158569 44.3958 9.94811 44.3958 25.7121C44.3958 41.4762 34.1024 51.1937 18.6982 51.1937Z" fill="black"/>
<path d="M84.8918 51.1937H52.4999V0.158569H84.8198V10.8839H63.873V20.6014H82.8763V30.6069H63.873V40.3964H84.8918V51.1937Z" fill="black"/>
<path d="M114.828 36.0775L126.993 0.158569H139.086L120.443 51.1937H108.71L89.9946 0.158569H102.519L114.828 36.0775Z" fill="black"/>
<path d="M135.069 44.4274C135.069 40.3964 138.38 37.0853 142.411 37.0853C146.442 37.0853 149.826 40.3964 149.826 44.4274C149.826 48.3864 146.442 51.8416 142.411 51.8416C138.38 51.8416 135.069 48.3864 135.069 44.4274Z" fill="black"/>
<path d="M202.856 0.158569L186.444 25.7841L203 51.1937H189.18L179.102 34.6379L169.097 51.1937H155.708L172.192 25.6402L155.708 0.158569H169.385L179.462 16.7144L189.539 0.158569H202.856Z" fill="#7000FF"/>
</svg>

<svg width="203" height="52" fill="none" xmlns="http://www.w3.org/2000/svg"><path d="M11.644 40.468h6.622c7.846 0 14.253-4.534 14.253-14.756 0-10.221-6.407-14.828-14.253-14.828h-6.622v29.584Zm7.054 10.726H.271V.159h18.5c15.331 0 25.625 9.79 25.625 25.553 0 15.764-10.294 25.482-25.698 25.482ZM84.892 51.194H52.5V.159h32.32v10.725H63.873V20.6h19.003v10.006H63.873v9.79h21.019v10.797ZM114.828 36.078 126.993.157h12.093l-18.643 51.036H108.71L89.995.159h12.524l12.309 35.919ZM135.069 44.427c0-4.03 3.311-7.342 7.342-7.342s7.415 3.311 7.415 7.342c0 3.96-3.384 7.415-7.415 7.415-4.031 0-7.342-3.456-7.342-7.415Z" fill="#000"/><path d="m202.856.159-16.412 25.625L203 51.194h-13.82l-10.078-16.556-10.005 16.556h-13.389l16.484-25.554L155.708.16h13.677l10.077 16.555L189.539.16h13.317Z" fill="#7000FF"/></svg>
